!!!SOCIAL_FUNCTION:	songs used in the treatment of the sick
!!!PDT:	1929
!!!OTL: No_58_Song_to_Cure_an_Injury_by_a_Horse.krn
!!!REG: Southwest
!!!LANG: Non-Tone
!!!LING_GROUP: Uto-Aztecan
**kern
*staff1
=1-
*clefF4
*k[b-e-a-d-g-]
*M2/4
8A-\L
8A-\J
4A-\
=2
8e-\L
8e-\J
4e-\
=3
4d-\
4d-\
=4
8B-\L
8A-\J
4A-\
=5
8e-\L
8e-\J
4e-\
=6
8e-\L
8e-\J
4d-\
=7
4B-\
4B-\
=8
4A-\
8A-\L
8F\J
=9
8B-\L
8B-\J
4B-\
=10
8A-\L
8A-\J
4A-\
=11
8F\L
8E-\J
8E-\
8r
=12
4d-\
8d-\L
8B-\J
=13
4d-\
4d-\
=14
4.B-\
8A-\
=15
8B-\L
8B-\J
4B-\
=16
8A-\L
8A-\J
4A-\
=17
8F\L
8E-\J
8E-\
8r
=18
4A-\
4B-\
=19
4B-\
8B-\L
8F\J
=20
2A-\
=21||
*M3/4
4F\
8E-\
8r
4A-\
=22
2A-\
4A-\
=23
2.A-\
==
*-
